svg/bell_minus_outline.svg

<svg xmlns="http://www.w3.org/2000/svg" viewBox="0 0 24 24"><path d="M12 2c-1.1 0-2 .9-2 2v.29C7.12 5.14 5 7.82 5 11v6l-2 2v1h9.35a5.9 5.9 0 0 1-.35-2H7v-7c0-2.76 2.24-5 5-5s5 2.24 5 5v1.09a5.6 5.6 0 0 1 2 0V11c0-3.18-2.12-5.86-5-6.71V4a2 2 0 0 0-2-2m2 15v2h8v-2m-12 4a2 2 0 0 0 3.65 1.13c-.32-.34-.6-.72-.84-1.13z"/></svg>

<?xml version="1.0" encoding="UTF-8"?><!DOCTYPE svg PUBLIC "-//W3C//DTD SVG 1.1//EN" "http://www.w3.org/Graphics/SVG/1.1/DTD/svg11.dtd"><svg xmlns="http://www.w3.org/2000/svg" xmlns:xlink="http://www.w3.org/1999/xlink" version="1.1" id="mdi-bell-minus-outline" width="24" height="24" viewBox="0 0 24 24"><path d="M12 2C10.9 2 10 2.9 10 4V4.29C7.12 5.14 5 7.82 5 11V17L3 19V20H12.35C12.12 19.36 12 18.68 12 18H7V11C7 8.24 9.24 6 12 6S17 8.24 17 11V12.09C17.33 12.03 17.67 12 18 12C18.34 12 18.67 12.03 19 12.09V11C19 7.82 16.88 5.14 14 4.29V4C14 2.9 13.11 2 12 2M14 17V19H22V17M10 21C10 22.11 10.9 23 12 23C12.66 23 13.28 22.67 13.65 22.13C13.33 21.79 13.05 21.41 12.81 21H10Z" /></svg>
